X: 2603
T: Fairly Shot o' Her
P: Jacky's Return
C:Trad.
R:Jig (8x32)
B:RSCDS 26-3
Z:Anselm Lingnau <anselm@strathspey.org>
M:6/8
L:1/8
K:F
(3c/d/e/|"F"f2F F2A|"Bb"B2d "C7"G2B|"F7"AGF "Am"cBA|"C"A3 "C7"G2(3c/d/e/|
  "F"f2F F2A|"Bb"B2d "C7"G2B|"F7"AGF cBA|"C7"G3 "F"F3||
  "F"cdc "C7"f2g|"F"a2f f3|"Bb"def "F"cBA|"C7"B2G G2c|
  "F"fcf "(Dm)"afa|"F"c'af "Bb"[d'3b3]|"C"afd "F"cAF|"C7"G2F "F"F3|]
%%center Book26/2603-Fairly_Shot_o_Her-AL.abc

%%sep 1 1 500
%%sep 1 1 500

